!!!COM: Ockeghem, Johannes
!!!CDT: ~1425-1497/02/06
!!!OTL: Je n'ay dueil
!!!AGN: Song; Chanson
!!!SCT: Ock3007
!!!SCA: Ock3007
!!!voices: 4
**kern	**text	**text	**text	**kern	**text	**text	**text	**kern	**text	**text	**text	**kern	**text	**text	**text
*staff4	*staff4	*staff4	*staff4	*staff3	*staff3	*staff3	*staff3	*staff2	*staff2	*staff2	*staff2	*staff1	*staff1	*staff1	*staff1
*Ivox	*	*	*	*Ivox	*	*	*	*Ivox	*	*	*	*Ivox	*	*	*
*I"Bassus	*	*	*	*I"Tenor	*	*	*	*I"Contra	*	*	*	*I"Discantus	*	*	*
*I'B	*	*	*	*I'T	*	*	*	*I'C	*	*	*	*I'D	*	*	*
*clefGv2	*	*	*	*clefG2	*	*	*	*clefG2	*	*	*	*clefG2	*	*	*
*k[]	*	*	*	*k[]	*	*	*	*k[]	*	*	*	*k[]	*	*	*
*M2/1	*	*	*	*M2/1	*	*	*	*M2/1	*	*	*	*M2/1	*	*	*
*met(C|)	*	*	*	*met(C|)	*	*	*	*met(C|)	*	*	*	*met(C|)	*	*	*
=1-	=1-	=1-	=1-	=1-	=1-	=1-	=1-	=1-	=1-	=1-	=1-	=1-	=1-	=1-	=1-
!!LO:TX:Z=42:t=Original version, possibly originally lacking contra (see Litterick 1980)
!!LO:TX:Z=8:t=Form&colon; rondeau
1.d	Je	Ma	Je	0d	Je	Ma	Je	0d	Je	Ma	Je	0r	.	.	.
4c	.	.	.	.	.	.	.	.	.	.	.	.	.	.	.
4B	.	.	.	.	.	.	.	.	.	.	.	.	.	.	.
=2	=2	=2	=2	=2	=2	=2	=2	=2	=2	=2	=2	=2	=2	=2	=2
1A	n'ay	dou-	n'ay	0f	n'ay	dou-	n'ay	0a	.	.	.	0r	.	.	.
1d	.	.	.	.	.	.	.	.	.	.	.	.	.	.	.
=3	=3	=3	=3	=3	=3	=3	=3	=3	=3	=3	=3	=3	=3	=3	=3
0G	dueil	-leur	plus	0g	dueil	-leur	plus	0b-i	.	.	.	0r	.	.	.
=4	=4	=4	=4	=4	=4	=4	=4	=4	=4	=4	=4	=4	=4	=4	=4
0r	.	.	.	[0a	que	est	riens	1a	n'ay	dou-	n'ay	0a	Je	Ma	Je
.	.	.	.	.	.	.	.	[1cc	dueil	-leur	plus	.	.	.	.
=5	=5	=5	=5	=5	=5	=5	=5	=5	=5	=5	=5	=5	=5	=5	=5
0r	.	.	.	0a]	.	.	.	2cc]	.	.	.	0cc	n'ay	dou-	n'ay
.	.	.	.	.	.	.	.	2b-i	.	.	.	.	.	.	.
.	.	.	.	.	.	.	.	1a	.	.	.	.	.	.	.
=6	=6	=6	=6	=6	=6	=6	=6	=6	=6	=6	=6	=6	=6	=6	=6
0r	.	.	.	0b-i	je	plus	qui	0g	.	.	.	0dd	dueil	-leur	plus
=7	=7	=7	=7	=7	=7	=7	=7	=7	=7	=7	=7	=7	=7	=7	=7
0r	.	.	.	0a	ne	que	me	0r	.	.	.	0ee	que	est	riens
=8	=8	=8	=8	=8	=8	=8	=8	=8	=8	=8	=8	=8	=8	=8	=8
0r	.	.	.	1g	suis	trop	con-	0r	.	.	.	1ee	je	plus	qui
.	.	.	.	1a	.	.	.	.	.	.	.	[1ee	ne	que	me
=9	=9	=9	=9	=9	=9	=9	=9	=9	=9	=9	=9	=9	=9	=9	=9
0r	.	.	.	1bni	.	.	.	0r	.	.	.	2ee]	.	.	.
.	.	.	.	.	.	.	.	.	.	.	.	2dd	.	.	.
.	.	.	.	[1cc	mor-	for-	-for-	.	.	.	.	1ee	.	.	.
=10	=10	=10	=10	=10	=10	=10	=10	=10	=10	=10	=10	=10	=10	=10	=10
0r	.	.	.	2cc]	.	.	.	0r	.	.	.	1ff	suis	trop	con-
.	.	.	.	4b	.	.	.	.	.	.	.	.	.	.	.
.	.	.	.	4a	.	.	.	.	.	.	.	.	.	.	.
.	.	.	.	2g	.	.	.	.	.	.	.	[1gg	mor-	for-	-for-
.	.	.	.	2a	.	.	.	.	.	.	.	.	.	.	.
=11	=11	=11	=11	=11	=11	=11	=11	=11	=11	=11	=11	=11	=11	=11	=11
0G	Ne	Car	D'oeil	0b-i	.	.	.	1.g	Ne	Car	D'oeil	2gg]	.	.	.
.	.	.	.	.	.	.	.	.	.	.	.	4ff	.	.	.
.	.	.	.	.	.	.	.	.	.	.	.	4ee	.	.	.
.	.	.	.	.	.	.	.	.	.	.	.	1dd	.	.	.
.	.	.	.	.	.	.	.	4f	.	.	.	.	.	.	.
.	.	.	.	.	.	.	.	4e	.	.	.	.	.	.	.
=12	=12	=12	=12	=12	=12	=12	=12	=12	=12	=12	=12	=12	=12	=12	=12
[0A	doy	sans	ne	0a	-te;	-te,	-te;	0e	.	.	.	0cc	-te;	-te,	-te;
=13	=13	=13	=13	=13	=13	=13	=13	=13	=13	=13	=13	=13	=13	=13	=13
1A]	.	.	.	0f	Ne	Car	D'oeil	1.a	doy	sans	ne	0r	.	.	.
1d	.	.	.	.	.	.	.	.	.	.	.	.	.	.	.
.	.	.	.	.	.	.	.	4g	.	.	.	.	.	.	.
.	.	.	.	.	.	.	.	4f	.	.	.	.	.	.	.
=14	=14	=14	=14	=14	=14	=14	=14	=14	=14	=14	=14	=14	=14	=14	=14
1e	.	.	voy	1e	doy	sans	ne	1g	.	.	.	0cc	Ne	Car	D'oeil
1c	.	.	.	1e	je	a-	voy	1g	je	a-	voy	.	.	.	.
=15	=15	=15	=15	=15	=15	=15	=15	=15	=15	=15	=15	=15	=15	=15	=15
1r	.	.	.	0d	bien	-voir	plus	1.a	bien	-voir	plus	1ff	doy	sans	ne
1d	je	a-	plus	.	.	.	.	.	.	.	.	1ff	je	a-	voy
.	.	.	.	.	.	.	.	2b	.	.	.	.	.	.	.
=16	=16	=16	=16	=16	=16	=16	=16	=16	=16	=16	=16	=16	=16	=16	=16
0A	bien	-voir	.	0c	.	.	.	2.cc	.	.	.	0ee	bien	-voir	plus
.	.	.	.	.	.	.	.	4b	.	.	.	.	.	.	.
.	.	.	.	.	.	.	.	4a	.	.	.	.	.	.	.
.	.	.	.	.	.	.	.	4g	.	.	.	.	.	.	.
.	.	.	.	.	.	.	.	2a	.	.	.	.	.	.	.
=17	=17	=17	=17	=17	=17	=17	=17	=17	=17	=17	=17	=17	=17	=17	=17
0B-i	.	.	.	1.f	vou-	au-	que	1.d	vou-	.	que	[0dd	vou-	au-	que
.	.	.	.	2g	.	.	.	2e	.	.	.	.	.	.	.
=18	=18	=18	=18	=18	=18	=18	=18	=18	=18	=18	=18	=18	=18	=18	=18
1r	.	.	.	2a	.	.	.	2f	-loir,	.	.	1dd]	.	.	.
.	.	.	.	2b-i	.	.	.	2g	.	.	.	.	.	.	.
1A	vou-	au-	que	[1a	.	.	.	1e	.	.	.	1cc	.	.	.
=19	=19	=19	=19	=19	=19	=19	=19	=19	=19	=19	=19	=19	=19	=19	=19
1d	.	.	.	2a]	.	.	.	1r	.	.	.	0b	.	.	.
.	.	.	.	4g	.	.	.	.	.	.	.	.	.	.	.
.	.	.	.	4f	.	.	.	.	.	.	.	.	.	.	.
1e	.	.	.	1g	.	.	.	1e	vou-	.	des-	.	.	.	.
=20	=20	=20	=20	=20	=20	=20	=20	=20	=20	=20	=20	=20	=20	=20	=20
1f	-loir	-cun	des-	1a	-loir	-cun	des-	1.a	-loir	.	.	1a	-loir	-cun	des-
1d	.	.	.	1f	.	.	.	.	.	.	.	[1dd	mo-	plai-	-plai-
.	.	.	.	.	.	.	.	2g	.	.	.	.	.	.	.
=21	=21	=21	=21	=21	=21	=21	=21	=21	=21	=21	=21	=21	=21	=21	=21
0A	mo-	plai-	-plai-	0e	mo-	plai-	-plai-	1a	.	.	.	2dd]	.	.	.
.	.	.	.	.	.	.	.	.	.	.	.	4cc#i	.	.	.
.	.	.	.	.	.	.	.	.	.	.	.	4b	.	.	.
.	.	.	.	.	.	.	.	1a	mo-	plai-	-plai-	1cc#i	.	.	.
=22	=22	=22	=22	=22	=22	=22	=22	=22	=22	=22	=22	=22	=22	=22	=22
0B-i	-rir?	-sir,&	-sir.	0d	-rir?	-sir,	-sir.	1.f	-rir?	-sir,&	-sir.	1.dd	.	.	.
.	.	.	.	.	.	.	.	2g	.	.	.	2ee	.	.	.
=23	=23	=23	=23	=23	=23	=23	=23	=23	=23	=23	=23	=23	=23	=23	=23
1A	.	.	.	0r	.	.	.	1a	.	.	.	1ff	.	.	.
1G	.	.	.	.	.	.	.	[1d	.	.	.	[1gg	-rir?	-sir,&	-sir.
=24	=24	=24	=24	=24	=24	=24	=24	=24	=24	=24	=24	=24	=24	=24	=24
0B-i	.	.	.	1.g	mo-	plai-	plai-	0d]	.	.	.	2gg]	.	.	.
.	.	.	.	.	.	.	.	.	.	.	.	2ff	.	.	.
.	.	.	.	.	.	.	.	.	.	.	.	2ee	.	.	.
.	.	.	.	4f	.	.	.	.	.	.	.	2dd	.	.	.
.	.	.	.	4g	.	.	.	.	.	.	.	.	.	.	.
=25	=25	=25	=25	=25	=25	=25	=25	=25	=25	=25	=25	=25	=25	=25	=25
0AN	.	.	.	0aN	-rir?	-sir,&	-sir.	0eN	.	.	.	0ccN	.	.	.
=26	=26	=26	=26	=26	=26	=26	=26	=26	=26	=26	=26	=26	=26	=26	=26
1.f	Dueil	.	Mort	0a	Dueil	.	Mort	1.d	Dueil	.	Mort	0r	.	.	.
2e	.	.	.	.	.	.	.	2e	.	.	.	.	.	.	.
=27	=27	=27	=27	=27	=27	=27	=27	=27	=27	=27	=27	=27	=27	=27	=27
1d	a	.	est	1b	a	.	est	1f	a	.	est	0r	.	.	.
1d	vou-	.	le	1b	vou-	.	le	2f	vou-	.	le	.	.	.	.
.	.	.	.	.	.	.	.	4e	.	.	.	.	.	.	.
.	.	.	.	.	.	.	.	4d	.	.	.	.	.	.	.
=28	=28	=28	=28	=28	=28	=28	=28	=28	=28	=28	=28	=28	=28	=28	=28
1.A	-lu	.	plus	1.cc	-lu	.	plus,	1c	-lu,	.	plus,	1.cc	Dueil	.	Mort
.	.	.	.	.	.	.	.	1cc	Dueil	.	Mort	.	.	.	.
2B	.	.	.	4b	.	.	.	.	.	.	.	2dd	.	.	.
.	.	.	.	4a	.	.	.	.	.	.	.	.	.	.	.
=29	=29	=29	=29	=29	=29	=29	=29	=29	=29	=29	=29	=29	=29	=29	=29
1c	.	.	.	1g	.	.	.	1cc	a	.	est	1ee	a	.	est
1c	mon	.	de	1g	mon	.	le	1cc	vou-	.	le	1ee	vou-	.	le
=30	=30	=30	=30	=30	=30	=30	=30	=30	=30	=30	=30	=30	=30	=30	=30
0F	cueur	.	mon	1f	.	.	plus	1.a	-lu	.	plus	1.ff	-lu	.	plus
.	.	.	.	1a	.	.	.	.	.	.	.	.	.	.	.
.	.	.	.	.	.	.	.	4g	.	.	.	4ee	.	.	.
.	.	.	.	.	.	.	.	4f	.	.	.	4ff	.	.	.
=31	=31	=31	=31	=31	=31	=31	=31	=31	=31	=31	=31	=31	=31	=31	=31
0c	.	.	.	1g	.	.	.	2.e	.	.	.	1gg	.	.	.
.	.	.	.	.	.	.	.	4f	.	.	.	.	.	.	.
.	.	.	.	[1cc	.	.	.	[1g	.	.	.	1ee	.	.	.
=32	=32	=32	=32	=32	=32	=32	=32	=32	=32	=32	=32	=32	=32	=32	=32
0G	.	.	.	2cc]	.	.	.	2g]	.	.	.	0dd	mon	.	de
.	.	.	.	4b	.	.	.	2f	.	.	.	.	.	.	.
.	.	.	.	4a	.	.	.	.	.	.	.	.	.	.	.
.	.	.	.	1b	.	.	de	1g	mon	.	de	.	.	.	.
=33	=33	=33	=33	=33	=33	=33	=33	=33	=33	=33	=33	=33	=33	=33	=33
0r	.	.	.	1.cc	cueur	.	mon	1c	cueur	.	mon	1cc	cueur	.	mon
.	.	.	.	.	.	.	.	1cc	sai-	.	de-	1ee	sai-	.	de-
.	.	.	.	4b	.	.	.	.	.	.	.	.	.	.	.
.	.	.	.	4cc	.	.	.	.	.	.	.	.	.	.	.
=34	=34	=34	=34	=34	=34	=34	=34	=34	=34	=34	=34	=34	=34	=34	=34
0r	.	.	.	1dd	.	.	.	1b	.	.	.	1dd	.	.	.
.	.	.	.	1b	.	.	.	2g	.	.	.	[1gg	.	.	.
.	.	.	.	.	.	.	.	4f	.	.	.	.	.	.	.
.	.	.	.	.	.	.	.	4e	.	.	.	.	.	.	.
=35	=35	=35	=35	=35	=35	=35	=35	=35	=35	=35	=35	=35	=35	=35	=35
0r	.	.	.	0a	sai-	.	de-	4f	.	.	.	1gg]	.	.	.
.	.	.	.	.	.	.	.	4e	.	.	.	.	.	.	.
.	.	.	.	.	.	.	.	4d	.	.	.	.	.	.	.
.	.	.	.	.	.	.	.	4c	.	.	.	.	.	.	.
.	.	.	.	.	.	.	.	1d	.	.	.	1ff#i	.	.	.
=36	=36	=36	=36	=36	=36	=36	=36	=36	=36	=36	=36	=36	=36	=36	=36
2.c	sai-	.	de-	1.g	-sir,	.	-sir,	2.e	-sir,	.	-sir,	1gg	-sir,	.	-sir,
4d	.	.	.	.	.	.	.	4f	.	.	.	.	.	.	.
2e	.	.	.	.	.	.	.	2g	.	.	.	2r	.	.	.
[2f	.	.	.	2a	sai-	.	de-	2f	sai-	.	de-	2cc	sai-	.	de-
=37	=37	=37	=37	=37	=37	=37	=37	=37	=37	=37	=37	=37	=37	=37	=37
2f]	.	.	.	2b	.	.	.	2d	.	.	.	2dd	.	.	.
2e	.	.	.	2cc	.	.	.	2g	.	.	.	2ee	.	.	.
2d	.	.	.	2dd	.	.	.	2a	.	.	.	2.ff	.	.	.
2g	.	.	.	2b	.	.	.	2b	.	.	.	.	.	.	.
.	.	.	.	.	.	.	.	.	.	.	.	4gg	.	.	.
=38	=38	=38	=38	=38	=38	=38	=38	=38	=38	=38	=38	=38	=38	=38	=38
[0c	-sir,	.	-sir,	1.cc	-sir,	.	-sir,	0g	-sir,	.	-sir,	[0ee	-sir,	.	-sir,
.	.	.	.	4b	.	.	.	.	.	.	.	.	.	.	.
.	.	.	.	4a	.	.	.	.	.	.	.	.	.	.	.
=39	=39	=39	=39	=39	=39	=39	=39	=39	=39	=39	=39	=39	=39	=39	=39
0c]	.	.	.	1g	.	.	.	0cc	.	.	.	0ee]	.	.	.
.	.	.	.	1g	Qui	.	Car	.	.	.	.	.	.	.	.
=40	=40	=40	=40	=40	=40	=40	=40	=40	=40	=40	=40	=40	=40	=40	=40
1.f	Qui	.	Car	1a	.	.	.	1cc	Qui	.	Car	1r	.	.	.
.	.	.	.	1a	de	.	quel-	4cc	de	.	quel-	1cc	Qui	.	Car
.	.	.	.	.	.	.	.	4b	.	.	.	.	.	.	.
2e	.	.	.	.	.	.	.	4a	.	.	.	.	.	.	.
.	.	.	.	.	.	.	.	4g	.	.	.	.	.	.	.
=41	=41	=41	=41	=41	=41	=41	=41	=41	=41	=41	=41	=41	=41	=41	=41
1d	de	.	quel-	1b	.	.	.	1f	.	.	.	1dd	de	.	quel-
1d	tous	.	-que	1b	tous	.	-que	1f	tous	.	-que	1dd	tous	.	-que
=42	=42	=42	=42	=42	=42	=42	=42	=42	=42	=42	=42	=42	=42	=42	=42
0c	biens	.	chose	1.cc	biens	.	cho-	1.g	biens	.	cho-	1.ee	biens	.	cho-
.	.	.	.	2b	.	.	.	4f	.	.	.	2dd	.	.	.
.	.	.	.	.	.	.	.	4e	.	.	.	.	.	.	.
=43	=43	=43	=43	=43	=43	=43	=43	=43	=43	=43	=43	=43	=43	=43	=43
0r	.	.	.	1a	.	.	.	1f	.	.	.	1cc	.	.	.
.	.	.	.	1g	me	.	.	1g	.	.	.	1b	.	.	.
=44	=44	=44	=44	=44	=44	=44	=44	=44	=44	=44	=44	=44	=44	=44	=44
0r	.	.	.	1a	des-	.	-se	1.d	me	.	-se	1a	me	.	-se
.	.	.	.	1f	-con-	.	qu'on	.	.	.	.	[1dd	des-	.	qu'on
.	.	.	.	.	.	.	.	4e	.	.	.	.	.	.	.
.	.	.	.	.	.	.	.	4f	.	.	.	.	.	.	.
=45	=45	=45	=45	=45	=45	=45	=45	=45	=45	=45	=45	=45	=45	=45	=45
1r	.	.	.	0e	-for-	.	m'a-	1g	des-	.	qu'on	1dd]	.	.	.
1A	me	.	qu'on	.	.	.	.	1a	-con-	.	m'a-	1cc#i	-con-	.	m'a-
=46	=46	=46	=46	=46	=46	=46	=46	=46	=46	=46	=46	=46	=46	=46	=46
1d	des-	.	m'a-	1d	-te,	.	-por-	4f	-for-	.	-por-	1dd	-for-	.	-por-
.	.	.	.	.	.	.	.	4g	.	.	.	.	.	.	.
.	.	.	.	.	.	.	.	4a	.	.	.	.	.	.	.
.	.	.	.	.	.	.	.	4b	.	.	.	.	.	.	.
1c	-con-	.	.	[1a	des-	.	.	2.cc	.	.	.	2ee	.	.	.
.	.	.	.	.	.	.	.	.	.	.	.	[2ff	.	.	.
.	.	.	.	.	.	.	.	4b	.	.	.	.	.	.	.
=47	=47	=47	=47	=47	=47	=47	=47	=47	=47	=47	=47	=47	=47	=47	=47
1d	-for-	.	-por-	0a_	.	.	.	4a	.	.	.	2ff]	.	.	.
.	.	.	.	.	.	.	.	4g	.	.	.	.	.	.	.
.	.	.	.	.	.	.	.	1a	.	.	.	4ee	.	.	.
.	.	.	.	.	.	.	.	.	.	.	.	4dd	.	.	.
2A	.	.	.	.	.	.	.	.	.	.	.	2.cc	.	.	.
[2c	.	.	.	.	.	.	.	4g	.	.	.	.	.	.	.
.	.	.	.	.	.	.	.	4f	.	.	.	4dd	.	.	.
=48	=48	=48	=48	=48	=48	=48	=48	=48	=48	=48	=48	=48	=48	=48	=48
2c]	.	.	.	1a]	.	.	.	2e	.	.	.	2ee	.	.	.
2d	.	.	.	.	.	.	.	2.ee	.	.	.	2cc	.	.	.
1e	.	.	.	1g	-con-	.	.	.	.	.	.	1b	.	.	.
.	.	.	.	.	.	.	.	4dd	.	.	.	.	.	.	.
.	.	.	.	.	.	.	.	4cc	.	.	.	.	.	.	.
.	.	.	.	.	.	.	.	4b	.	.	.	.	.	.	.
=49	=49	=49	=49	=49	=49	=49	=49	=49	=49	=49	=49	=49	=49	=49	=49
2.A	-te,	.	-te,	2a	-for-	.	.	4cc	.	.	.	1a	-te,	.	-te,
.	.	.	.	.	.	.	.	4b	.	.	.	.	.	.	.
.	.	.	.	2f	.	.	.	2.cc	.	.	.	.	.	.	.
4B	.	.	.	.	.	.	.	.	.	.	.	.	.	.	.
1c	.	.	.	1e	-te,	.	-te,	.	.	.	.	2.g	des-	.	m'a-
.	.	.	.	.	.	.	.	8b/L	.	.	.	.	.	.	.
.	.	.	.	.	.	.	.	8a/J	.	.	.	.	.	.	.
.	.	.	.	.	.	.	.	[2g	.	.	.	.	.	.	.
.	.	.	.	.	.	.	.	.	.	.	.	4a	.	.	.
=50	=50	=50	=50	=50	=50	=50	=50	=50	=50	=50	=50	=50	=50	=50	=50
2G	des-	.	m'a-	2d	des-	.	m'a-	2g]	.	.	.	2b	.	.	.
2A	.	.	.	2c	.	.	.	2f	.	.	.	2cc	.	.	.
2G	.	.	.	2e	.	.	.	2g	.	.	.	2b	-con-	.	.
2B	-con-	.	.	2d	-con-	.	.	2f	.	.	.	[2dd	-for-	.	-por-
=51	=51	=51	=51	=51	=51	=51	=51	=51	=51	=51	=51	=51	=51	=51	=51
2A	-for-	.	.	1f	-for-	.	-por-	1a	-te,	.	-te,	4dd]	.	.	.
.	.	.	.	.	.	.	.	.	.	.	.	4cc	.	.	.
2.c	.	.	-por-	.	.	.	.	.	.	.	.	4b	.	.	.
.	.	.	.	.	.	.	.	.	.	.	.	4a	.	.	.
.	.	.	.	1e	.	.	.	1g	con-	.	m'a-	2cc	.	.	.
4B	.	.	.	.	.	.	.	.	.	.	.	.	.	.	.
[2G	.	.	.	.	.	.	.	.	.	.	.	[2b	.	.	.
=52	=52	=52	=52	=52	=52	=52	=52	=52	=52	=52	=52	=52	=52	=52	=52
2G]	.	.	.	2d	.	.	.	4g	-for-	.	-por-	2b]	.	.	.
.	.	.	.	.	.	.	.	4f	.	.	.	.	.	.	.
2A	.	.	.	2c	.	.	.	4e	.	.	.	1a	.	.	.
.	.	.	.	.	.	.	.	4d	.	.	.	.	.	.	.
1E	.	.	.	1B	.	.	.	1e	.	.	.	.	.	.	.
.	.	.	.	.	.	.	.	.	.	.	.	2g#i	.	.	.
=53	=53	=53	=53	=53	=53	=53	=53	=53	=53	=53	=53	=53	=53	=53	=53
[0Al	-te.	.	-te,	[0Al	-te.	.	-te,	1.c	.	.	.	[0al	-te.	.	-te,
.	.	.	.	.	.	.	.	2d	.	.	.	.	.	.	.
=54	=54	=54	=54	=54	=54	=54	=54	=54	=54	=54	=54	=54	=54	=54	=54
0A]	.	.	.	0A]	.	.	.	0el	-te.	.	-te,	0a]	.	.	.
==	==	==	==	==	==	==	==	==	==	==	==	==	==	==	==
*-	*-	*-	*-	*-	*-	*-	*-	*-	*-	*-	*-	*-	*-	*-	*-
!!!RDF**kern: l=long note in original notation
!!!RDF**kern: i=editorial accidental
!!!RDF**kern: V=start of tuplet marker
!!!RDF**kern: Z=end of tuplet marker
!!!ENC: Jesse Rodin 16 April 2018
!!!END: 2018/04/17/
!!!EED: Jesse Rodin
!!!EEV: 2018/07/23/
!!!ONB: Translated from MusicXML and edited on 2018/07/23/ by Craig Sapp
!!muse2ps: C^@{COM}\nEd. @{EED}^i2I150v105,105,105,150Q16z18l2550c70
